X:1
T:Title
%%score 1 2 3 4
L:1/8
M:4/4
K:C
V:1 treble nm="Part_1"
V:2 alto nm="Part_2"
V:3 treble-8 nm="Part_3"
V:4 bass nm="Part_4"
V:1
 B8 | G6 A2 | B4 c2 A2- | AG FE F4 | G6 FE | D8 | z4 G4 | G4 A4 | AG FE F2 E2- | E2 D [CD]4 D | %10
 E8 :| E4 z4 | C4 c4- | c2 B2 c2 BA | G4 B4- | .B4 G4- | G2 F2 E2 D2 | F4 G4 | EFGA B2 c2- | %19
 c2 B2 G4 | c4 d2 B2- | B2 G4 F2 | G8 | z4 G4- | G2 FE D4 | G8 | F4 D2 G2- | G2 FE D4 | C8 | %29
 z4 E4 | F4 G4 | A4 B2 c2- | c2 BA G4 |[M:3/4] A4 A2 | G4 G2 | E2 E2 F2 | G3 F E2 | C2 D4 | E6 |] %39
V:2
 D8 | E8 | B,4 z2 E2- | E2 C2 D4 | B,2 E4 DC | B,2 G,4 F,E, | D,4 z2 G,2- | G,A, B,2 A,4 | %8
 z2 A,4 C2- | .CB, G,2 A,4 | A,8 :| C6 D2 | E4 z2 A,2- | A,2 G,F, E,2 E2- | E2 DC B,4 | %15
 z2 B,4 G,2- | G,2 C4 A,2- | A,2 D4 G,2- | G,2 A,2 B,2 C2- | CDEF E2 D2 | FEDC D2 A,2 | %21
 B,2 G,2 A,4 | D,2 G,3 A,B,C | D2 E2 D4 | z4 D4 | E4 C4 | D8- | D4 B,4 | A,8 | z4 B,2 C2 | D6 E2 | %31
 F4 G4 | E4 E4 |[M:3/4] C3 DEF | E4 B,2 | C4 D2 | E2 C4 | C2 A,4 | A,6 |] %39
V:3
 B8 | B4 B4 | G4 A2 c2- | cB AG A2 A2 | G8 | z4 B4 | B4 E4 | B4 d2 c2 | cB AG A4 | E2 G2 F4 | E8 :| %11
w: mit|tveb ick|Tagl bit E.|* * * * * mein|Riagl||* fo|fem mug von||* * bir|fe'ml|
w: Dod)|firebt mein|ijeral in Gd)impf|* * * * * unb|djeril|iu|te ben|* tem wil-|* * a * *|* * ten||
 E8 | z4 e4 | e6 d2 | B4 e2 e2- | e2 dc d4 | e8 | z4 B4 | c4 d2 e2- | e2 dc B4 | A4 B3 c | %21
w: |unb|ftiinb an|mir! gu fein|* * * bei|bit!|bas|nb'bm 'uk vot||bee gai- .-|
w: beinl||||||||||
 d2 e2 c4 | B8 | z4 B4 | c4 B4 | G8 | A4 B4- | B4 B4 | E8 | z4 G4 | A4 B4 | c4 d2 e2- | e2 d2 B4 | %33
w: * * fere|ron|wie|wobl es|fdittl|mein zlue|* er-|wdbit!||bleib *|ftet bein Sin-|.\-\-- * ter|
w: ||||||||||||
[M:3/4] A4 c2 | B4 G2 | A4 A2 | EDEF G2 | A2 F4 | E6 |] %39
w: tan! bran|folit bu|e'. tein|?wei "- * * *|* fe!|Wm.|
w: ||||||
V:4
 B,,8 | E,4 E,4 | E,4 A,,3 B,, | C,2 E,2 D,4 | E,2 C,4 B,,A,, | G,,6 A,,2 | B,,4 C,2 B,,A,, | %7
w: |||||||
w: |||||||
w: |||||||
w: |||||||
w: |||||||
w: |||||||
 G,,2 G,2 F,4 | z2 F,3 E, C,2- | C,D, E,2 D,4 | A,,8 :| A,,8- | A,,8 | A,,8 | E,8 | G,8 | C,8 | %17
w: ||||||||||
w: ||||||||||
w: ||||||||||
w: ||||||||||
w: ||||||||||
w: ||||||||||
 D,4 G,4 | C,4 G,,2 A,,2- | A,,B,,C,D, E,2 G,2 | F,4 z2 D,2 | B,,2 C,2 A,,4 | G,,8 | z4 G,4 | %24
w: |||||||
w: |||||||
w: |||||||
w: |||||||
w: |||||||
w: |||||||
 [C,E,]4 G,4 | E,2 C,3 D, E,2 | D,4 G,,4- | G,,4 G,,4 | A,,8 | z4 E,4 | D,4 G,,2 G,2 | %31
w: |||||||
w: |||||||
w: |||||||
w: |||||||
w: |||||||
w: |||||||
 F,2 A,2 G,2 C,2- | C,2 D,2 E,4 |[M:3/4] F,3 E,C,D, | E,4 E,2 | A,,4 D,2 | C,B,,C,D, C,2 | %37
w: |nit ezIoRl ber|EwRl bag GVu'd fdfter|* bie|fifieberfebr! fo|bies not * I mein|
w: |* Sreubenmew! in|verwilit * unb fo|gebitbt! bag|* Ichen|* mag! * atte was|
w: |Dienfi obn ~aurens|Rlog! bift * mein|troft *|Sreubentag. *||
w: |nur an als|fo * b'~rfien mir|?eine ~veifeIe|bu ber|G~zgl bea- * * *|
w: |fit! in biefem|beqtiebfies * fil.! bifi|ibr gan;|* geRaItl|bins * * * ~eIl|
w: |unb * ~fufentbaItI|unb gebiet mir mit|Gemalt. *|||
 A,,2 D,4 | A,,6 |] %39
w: gwiffer tobl|bift|
w: tu! fpat|frubl|
w: ||
w: brag'"W je|G~dn|
w: * befieb!!|bu|
w: ||

